raw-svg/play-circle.svg

<svg fill="none" height="24" viewBox="0 0 24 24" width="24" xmlns="http://www.w3.org/2000/svg"><path clip-rule="evenodd" d="m4.5 12c0-4.14214 3.35786-7.5 7.5-7.5 4.1421 0 7.5 3.35786 7.5 7.5 0 4.1421-3.3579 7.5-7.5 7.5-4.14214 0-7.5-3.3579-7.5-7.5zm7.5-9c-4.97056 0-9 4.02944-9 9 0 4.9706 4.02944 9 9 9 4.9706 0 9-4.0294 9-9 0-4.97056-4.0294-9-9-9zm-2 12.5858c0 .8909 1.0771 1.3371 1.7071.7071l3.5858-3.5858c.3905-.3905.3905-1.0237 0-1.4142l-3.5858-3.58579c-.63-.62997-1.7071-.1838-1.7071.7071z" fill="#000" fill-rule="evenodd"/></svg>

<svg width="24" height="24" viewBox="0 0 24 24" fill="none" xmlns="http://www.w3.org/2000/svg">
<path fill-rule="evenodd" clip-rule="evenodd" d="M4.5 12C4.5 7.85786 7.85786 4.5 12 4.5C16.1421 4.5 19.5 7.85786 19.5 12C19.5 16.1421 16.1421 19.5 12 19.5C7.85786 19.5 4.5 16.1421 4.5 12ZM12 3C7.02944 3 3 7.02944 3 12C3 16.9706 7.02944 21 12 21C16.9706 21 21 16.9706 21 12C21 7.02944 16.9706 3 12 3ZM10 15.5858C10 16.4767 11.0771 16.9229 11.7071 16.2929L15.2929 12.7071C15.6834 12.3166 15.6834 11.6834 15.2929 11.2929L11.7071 7.70711C11.0771 7.07714 10 7.52331 10 8.41421V15.5858Z" fill="black"/>
</svg>
